X: 656
T: Erzurum Çarşı Pazar
C: Faruk Kaleli
O: Turkey
F: http://compmusic.upf.edu/node/140
N: huseyni--turku--curcuna--sari_gelin--erzurum
N: makam= huseyni
N: form= turku
N: usul= curcuna = 10/8
M: 10/8
L: 1/16
K: C _2/4B ^3/4f  
Q: 1/4=162
%%MIDI tuningsystem comma53
z4 A2A4A4e6  | e4 d6e2 d2e6  | e4 e2{=f}e3dd3cd2 e2z2  | \
w:  Er zu rum  çar  |  şı  pa zar    |  Ney nim_ *  am *  man_ *  a man    | 
e4 f2d4c3Bc2 {d}d2z2  | 
w:  Ney nim_ am man_ *  a *  man    | 
c4 d2B4A4A2 {c}c2z2  | B4 c2A4A8-A2  | \
w:  Ney nim_ am man_ a *  man   |  sa rı  ge lin    | 
z4 c2c4d4d6  | d4 c6d2 c2d2 e4  | 
w:  İ çin de  bir   |  kız  ge zer    | 
e2z2 c2d4e4e6  | e4 e2{=f}d4d3cd2 {e}e2z2  | \
w:  Hop  ni nen_ öl sün   |  sa rı  *  ge lin_ *  a *  man    | 
e4 f2d4c3Bc2 {d}d2z2  | 
w:  Sa rı  ge lin_ *  a *  man    | 
c4 d2B4A4A2 {c}c2z2  | B4 c2A4A8-A2  | \
w:  Sa rı  ge lin_ a *  man   |  su na  yâ rim    | 
z4 c2c4d4d6  | d4 c6d2 c2d2 e4  | 
w:  İ çin de  bir   |  kız  ge zer    | 
e2z2 c2d4e4e6  | e4 e2{=f}d4d3cd2 {e}e2z2  | \
w:  Hop  ni nen_ öl sün   |  sa rı  *  ge lin_ *  a *  man    | 
e4 f2d4c3Bc2 {d}d2z2  | 
w:  Sa rı  ge lin_ *  a *  man    | 
c4 d2B4A4A2 {c}c2z2  | B4 c2A4A8-A2  | |


